X:762
T:Soldier's Joy
M:2/4
L:1/16
K:D
|:"D"dB|AFDF AFDF|A2d2 d2cB|AFDF AFDF|"Am"G2E2 E2FG|
"D"AFDF AFDF|A2d2 d3e|fafd "A7"egec|"D"d2d2 d2:|
|:"D"de|f2fd fagf|"A7"edcd efge|"D"f2fd fagf|edcB A2de|
"D"f2fd fagf|"A7"edcd efge|"D"fafd "A"egec|1 "D"d2d2 d2:|2 "D"d2d2 d4||
